storage/app/icons/phosphoricons/regular/wheelchair.svg

<svg xmlns="http://www.w3.org/2000/svg" fill="currentColor" viewBox="0 0 256 256"><path d="M255.59 189.47a8 8 0 0 0-10.12-5.06l-17.42 5.81-28.9-57.8A8 8 0 0 0 192 128h-80v-24h56a8 8 0 0 0 0-16h-56v-9a32 32 0 1 0-16 0v10.81A72 72 0 0 0 112 232c33.52 0 63.69-22.71 71.75-54a8 8 0 1 0-15.5-4c-6.16 24-30.34 42-56.25 42a56 56 0 0 1-16-109.66V136a8 8 0 0 0 8 8h83.05l29.79 59.58a8 8 0 0 0 9.69 4l24-8a8 8 0 0 0 5.06-10.11M88 48a16 16 0 1 1 16 16 16 16 0 0 1-16-16"/></svg>

<svg xmlns="http://www.w3.org/2000/svg" viewBox="0 0 256 256" fill="currentColor"><path d="M255.59,189.47a8,8,0,0,0-10.12-5.06l-17.42,5.81-28.9-57.8A8,8,0,0,0,192,128H112V104h56a8,8,0,0,0,0-16H112V79a32,32,0,1,0-16,0V89.81A72,72,0,0,0,112,232c33.52,0,63.69-22.71,71.75-54a8,8,0,1,0-15.5-4C162.09,198,137.91,216,112,216A56,56,0,0,1,96,106.34V136a8,8,0,0,0,8,8h83.05l29.79,59.58a8,8,0,0,0,9.69,4l24-8A8,8,0,0,0,255.59,189.47ZM88,48a16,16,0,1,1,16,16A16,16,0,0,1,88,48Z"/></svg>
